assets/svgs/misc-grey/MiscGrey54.svg

<svg width="34" height="48" viewBox="0 0 34 48" fill="none" xmlns="http://www.w3.org/2000/svg">
<path fill-rule="evenodd" clip-rule="evenodd" d="M17.013 20.96C14.586 20.96 12.612 18.98 12.612 16.55C12.612 14.13 14.586 12.15 17.013 12.15C19.44 12.15 21.415 14.13 21.415 16.55C21.415 18.98 19.44 20.96 17.013 20.96ZM17.013 9.15001C12.932 9.15001 9.61199 12.47 9.61199 16.55C9.61199 20.64 12.932 23.96 17.013 23.96C21.095 23.96 24.415 20.64 24.415 16.55C24.415 12.47 21.095 9.15001 17.013 9.15001ZM29.816 20.5C29.485 21.81 28.303 24.39 27.358 25.85C26.892 26.63 19.964 38.43 17 43.48L5.96399 24.06L5.89299 23.93C5.61299 23.43 5.03199 22.4 4.61699 21.09C4.09399 19.43 3.83899 17.87 3.83899 16.32C3.83899 9.05001 9.74899 3.14001 17.013 3.14001C24.612 3.14001 29.789 9.23001 30.403 15.11C30.559 16.6 30.373 18.32 29.816 20.5ZM33.387 14.8C32.515 6.45001 25.476 0.140015 17.013 0.140015C8.09499 0.140015 0.838989 7.40001 0.838989 16.32C0.838989 18.18 1.13999 20.04 1.75699 21.99C2.26499 23.6 2.97499 24.86 3.27799 25.4L3.34699 25.52C3.34899 25.53 3.35199 25.53 3.35399 25.54L15.674 47.21C15.939 47.68 16.432 47.97 16.968 47.97C16.972 47.97 16.975 47.97 16.979 47.97C17.51 47.97 18.002 47.69 18.272 47.23C18.383 47.04 29.356 28.36 29.906 27.44C30.897 25.9 32.267 23.04 32.724 21.25C33.37 18.7 33.581 16.66 33.387 14.8Z" fill="#1A1919"/>
</svg>

<svg xmlns="http://www.w3.org/2000/svg" viewBox="0 0 34 48"><path fill-rule="evenodd" d="M17.013 20.96a4.411 4.411 0 01-4.401-4.41 4.41 4.41 0 014.401-4.4 4.41 4.41 0 014.402 4.4c0 2.43-1.975 4.41-4.402 4.41zm0-11.81c-4.081 0-7.401 3.32-7.401 7.4 0 4.09 3.32 7.41 7.401 7.41 4.082 0 7.402-3.32 7.402-7.41 0-4.08-3.32-7.4-7.402-7.4zM29.816 20.5c-.331 1.31-1.513 3.89-2.458 5.35-.466.78-7.394 12.58-10.358 17.63L5.964 24.06l-.071-.13c-.28-.5-.861-1.53-1.276-2.84-.523-1.66-.778-3.22-.778-4.77 0-7.27 5.91-13.18 13.174-13.18 7.599 0 12.776 6.09 13.39 11.97.156 1.49-.03 3.21-.587 5.39zm3.571-5.7C32.515 6.45 25.476.14 17.013.14 8.095.14.839 7.4.839 16.32c0 1.86.301 3.72.918 5.67.508 1.61 1.218 2.87 1.521 3.41l.069.12c.002.01.005.01.007.02l12.32 21.67c.265.47.758.76 1.294.76h.011c.531 0 1.023-.28 1.293-.74.111-.19 11.084-18.87 11.634-19.79.991-1.54 2.361-4.4 2.818-6.19.646-2.55.857-4.59.663-6.45z" clip-rule="evenodd"/></svg>
